build/img/icons/bonus.svg

<svg xmlns="http://www.w3.org/2000/svg" width="53" height="53" fill="none"><g filter="url(#filter0_d)" fill="#FFD600"><path d="M41.35 13.25h-4.62c.825-.825 1.32-1.98 1.32-3.3C38.05 7.145 35.905 5 33.1 5c-1.65 0-4.62 1.485-6.6 3.465C24.52 6.485 21.55 5 19.9 5c-2.805 0-4.95 2.145-4.95 4.95 0 1.32.495 2.475 1.32 3.3h-4.62c-.99 0-1.65.66-1.65 1.65v4.62c0 .165.165.33.33.33h13.86c.33 0 .66-.33.66-.66v-5.28c0-.33.33-.66.66-.66h1.98c.33 0 .66.33.66.66v5.28c0 .33.33.66.66.66h13.86c.165 0 .33-.165.33-.33V14.9c0-.99-.66-1.65-1.65-1.65zM19.9 11.6c-.99 0-1.65-.66-1.65-1.65 0-.99.66-1.65 1.65-1.65.99 0 3.96 1.98 4.785 2.97-.495.165-4.785.33-4.785.33zm13.2 0s-4.29-.165-4.785-.33c.99-1.155 3.795-2.97 4.785-2.97.99 0 1.65.66 1.65 1.65 0 .99-.66 1.65-1.65 1.65zm-8.91 11.55H11.98a.355.355 0 00-.33.33v12.87c0 .99.66 1.65 1.65 1.65h10.89c.33 0 .66-.33.66-.66V23.81c0-.33-.33-.66-.66-.66zm16.83 0H28.81c-.33 0-.66.33-.66.66v13.53c0 .33.33.66.66.66H39.7c.99 0 1.65-.66 1.65-1.65V23.48a.355.355 0 00-.33-.33z"/></g><defs><filter id="filter0_d" x="0" y="0" width="53" height="53" filterUnits="userSpaceOnUse" color-interpolation-filters="sRGB"><feFlood flood-opacity="0" result="BackgroundImageFix"/><feColorMatrix in="SourceAlpha" values="0 0 0 0 0 0 0 0 0 0 0 0 0 0 0 0 0 0 127 0"/><feOffset dy="5"/><feGaussianBlur stdDeviation="5"/><feColorMatrix values="0 0 0 0 1 0 0 0 0 0.839216 0 0 0 0 0 0 0 0 0.15 0"/><feBlend in2="BackgroundImageFix" result="effect1_dropShadow"/><feBlend in="SourceGraphic" in2="effect1_dropShadow" result="shape"/></filter></defs></svg>

<svg xmlns="http://www.w3.org/2000/svg" width="53" height="53" viewBox="0 0 53 53" fill="none"> <g filter="url(#filter0_d)"> <path d="M41.35 13.25H36.73C37.555 12.425 38.05 11.27 38.05 9.95C38.05 7.145 35.905 5 33.1 5C31.45 5 28.48 6.485 26.5 8.465C24.52 6.485 21.55 5 19.9 5C17.095 5 14.95 7.145 14.95 9.95C14.95 11.27 15.445 12.425 16.27 13.25H11.65C10.66 13.25 10 13.91 10 14.9V19.52C10 19.685 10.165 19.85 10.33 19.85H24.19C24.52 19.85 24.85 19.52 24.85 19.19V13.91C24.85 13.58 25.18 13.25 25.51 13.25H27.49C27.82 13.25 28.15 13.58 28.15 13.91V19.19C28.15 19.52 28.48 19.85 28.81 19.85H42.67C42.835 19.85 43 19.685 43 19.52V14.9C43 13.91 42.34 13.25 41.35 13.25ZM19.9 11.6C18.91 11.6 18.25 10.94 18.25 9.95C18.25 8.96 18.91 8.3 19.9 8.3C20.89 8.3 23.86 10.28 24.685 11.27C24.19 11.435 19.9 11.6 19.9 11.6ZM33.1 11.6C33.1 11.6 28.81 11.435 28.315 11.27C29.305 10.115 32.11 8.3 33.1 8.3C34.09 8.3 34.75 8.96 34.75 9.95C34.75 10.94 34.09 11.6 33.1 11.6Z" fill="#FFD600"/> <path d="M24.19 23.15H11.98C11.815 23.15 11.65 23.315 11.65 23.48V36.35C11.65 37.34 12.31 38 13.3 38H24.19C24.52 38 24.85 37.67 24.85 37.34V23.81C24.85 23.48 24.52 23.15 24.19 23.15Z" fill="#FFD600"/> <path d="M41.02 23.15H28.81C28.48 23.15 28.15 23.48 28.15 23.81V37.34C28.15 37.67 28.48 38 28.81 38H39.7C40.69 38 41.35 37.34 41.35 36.35V23.48C41.35 23.315 41.185 23.15 41.02 23.15Z" fill="#FFD600"/> </g> <defs> <filter id="filter0_d" x="0" y="0" width="53" height="53" filterUnits="userSpaceOnUse" color-interpolation-filters="sRGB"> <feFlood flood-opacity="0" result="BackgroundImageFix"/> <feColorMatrix in="SourceAlpha" type="matrix" values="0 0 0 0 0 0 0 0 0 0 0 0 0 0 0 0 0 0 127 0"/> <feOffset dy="5"/> <feGaussianBlur stdDeviation="5"/> <feColorMatrix type="matrix" values="0 0 0 0 1 0 0 0 0 0.839216 0 0 0 0 0 0 0 0 0.15 0"/> <feBlend mode="normal" in2="BackgroundImageFix" result="effect1_dropShadow"/> <feBlend mode="normal" in="SourceGraphic" in2="effect1_dropShadow" result="shape"/> </filter> </defs> </svg>
